X: 274
T: Beni Kör Kuyularda...
C: Münir Nurettin Selçuk
O: Turkey
F: http://compmusic.upf.edu/node/140
N: kurdilihicazkar--sarki--sofyan--beni_kor_kuyularda--munir_nurettin_selcuk
N: makam= kurdilihicazkar
N: form= sarki
N: usul= sofyan = 4/4
M: 4/4
L: 1/16
K: C _B _e _A 
Q: 1/4=66
%%MIDI tuningsystem comma53
(3g2a2b2 g2z2 (3f2g2a2 f2z2  | f2gf e2f2 g6d2  | \
w:  ARANAĞME  |   | 
(3d2e2f2 d2z2 (3c2d2e2 c2z2  | 
w:   | 
B2cB A2B2 G6z2  | f2g6 g4 .g2.a2  | bg3 af2g g6z2  | \
w:   |  Be ni  kör  ku yu  |  lar *  *  *  *  da   | 
g6a2 g4 f4  | 
w:  mer di ven siz   | 
f2g2 {a}e2f2 g6z2  | bg3 af3 gd3 ec3  | \
w:  bı rak *  *  *  tın    |  SAZ  | 
f2g6 g4 .g2.a2  | bg3 af2g g6z2  | 
w:  Be ni  kör  ku yu  |  lar *  *  *  *  da   | 
g6a2 b4 c'2b2  | b2a2 a2b2 g6z2  | (3g2a2b2 g2z2 (3f2g2a2 f2z2  | 
w:  mer di ven siz   |  bı rak *  *  tın    |  SAZ  | 
gfef e2f2 g6z2  | f2g6 g2g4f2  | f2a2 g2f2 e3d e4  | \
w:   |  De niz ler_ or  |  ta sın *  *  da   | 
d4 e4 g2d2 d2c2  | 
w:  bak  yel ken *  siz   | 
dcBc B2c2 d6z2  | (3d2e2f2 d2z2 (3c2d2e2 c4  | \
w:  bı *  rak *  *  *  tın    |  SAZ  | 
dcBc B2c2 d6z2  | 
w:   | 
d2e4c2 c2d4B2  | B2c4g2 gfed c4  | .B4 .c4 d2B2 B2A2  | \
w:  De niz *  ler_ or  |  ta sın *  da   |  bak  yel ken *  siz   | 
cBA4AG G6z2  | 
w:  bı *  rak *  *  tın    | 
(3g2a2b2 g2z2 (3f2g2a2 f2z2  | gfef e2f2 g6z2  | \
w:  SAZ  |   | 
f2g6 g2g4f2  | 
w:  De niz ler_ or  | 
f2a2 g2f2 e3d e4  | d4 e4 g2d2 d2c2  | \
w:  ta sın *  *  da   |  bak  yel ken *  siz   | 
dcBc B2c2 d6z2  | 
w:  bı *  rak *  *  *  tın    | 
(3d2e2f2 d2z2 (3c2d2e2 c4  | dcBc B2c2 d6z2  | \
w:  SAZ  |   | 
d2e4c2 c2d4B2  | 
w:  De niz *  ler_ or  | 
B2c4g2 gfed c4  | .B4 .c4 d2B2 B2A2  | \
w:  ta sın *  da   |  bak  yel ken *  siz   | 
cBA4AG G6z2  | 
w:  bı *  rak *  *  tın    | 
b4 g4 =a4 f4  | g2=a2 c'bac' b6z2  | \
w:  SAZ  |   | 
b4 .b2.b2 b6=a2  | g4 =a4 b6z2  | 
w:  Öy le si ne   |  yık tın  ki   | 
b2d'6 c'2b6  | =a2g2 ^f2g2 a6z2  | d4 .g2.g2 =a6c'2  | \
w:  bü tün  i nanç  |  la rı *  *  mı    |  Öy le si ne   | 
b2=a2 g2^f2 g6z2  | 
w:  yık *  tın  *  ki   | 
g2a6 g2f6  | gfef e2f2 g6z2  | b4 g4 a4 f4  | \
w:  bü tün  i nanç  |  la *  rı *  *  *  mı    |  SAZ  | 
gfef e2f2 g6z2  | 
w:   | 
f2g2 g4 b2g4f2  | gfef e2f2 g6z2  | (3g2a2b2 g2z2 (3f2g2a2 f2z2  | 
w:  Be ni  sen siz   |  bı *  rak *  *  *  tın   |  of    | 
gfef e2f2 g6z2  | g2g2 g2f2 a4 g2f2  | \
w:  SAZ  |  Be ni  ben *  siz   | 
f2ed e2f2 d2z2 a4  | 
w:  bı rak *  *  tın  *  of    | 
g4 f4 e4 (3d2e2f2  | d4 (3fedef d6z2  | \
w:   |   | 
.c2.c2 c4 g4 f2e2  | d2{e}dc B2d2 c6z2  | 
w:  Be ni  sen siz   |  bı *  rak *  *  *  tın    | 
.B2.B2 c4 d4 c2B2  | {c}B2A4AG G4 e4  | \
w:  Be ni  ben siz   |  *  bı rak *  *  tın  of    | 
d4 c4 B4 cBAB  | G8 B2B2 B4  | 
w:   |  *  Be ni  ben  | 
d4 c2B2 BAA2 {B}A2G2  | G4 e4 d4 c4  | \
w:  siz  *  *  bı *  rak  |  tın  of    | 
B4 cBAB G8  | |


